X:1
T:Prelude - In Transylvania (Children)
T:Prelude - In Transylvania (Children)
T:JGA
T:Robert Browning
T:Copyright © 1998 by Megatherium Music, Yenston All Rights Reserved
T:Copyright © 1998 by Megatherium Music, Yenston All Rights Reserved
C:JGA
Z:Copyright © 1998 by Megatherium Music, Yenston
Z:All Rights Reserved
%%score 1 2 3
L:1/8
Q:1/4=120
M:6/8
K:G
V:1 treble 
V:2 treble 
V:3 bass 
V:1
"^Allegretto" z3 | z6 | z6 | z6 | z4 z D | B2 A G2 D | B2 G D2 D | (cB)A (BA)G | F2 G A2 D | %9
w: ||||In|Tran- syl- va- nia|there's a tribe of|a- * lien peo- * ple|who a- scribe the|
 D^CD (E^DE | FE)F G2 G | (^GF)G (AGA | ^A)^GA B2 B/B/ | ^GFE (^DE)D | (^C^D)C B,2 B, | %15
w: out- lan- dish ways * *|* * and dress on|which * their neigh- * *|* bours lay stress, to their|fa- thers and mo- * thers|ha- * ving ri- sen|
 ^CB,C (^DC)D | =F^DF G2 F | B2 A G2 D | (BAG) D3 | (cBA BAG) | F2 G A2 D | (D^C)D (ED)D | %22
w: out of some sub- * terr-|an- e- ous pri- son|out of Ha- me-|lin * * town|in * * * * *|Bruns- wick land, but|how * or why, * they|
 DBA G3- | G6 | z6 | z6 | z6 | z6 | z6 | z6 | z6 |] %31
w: don't un- der- stand.|||||||||
V:2
!p! ([Gg]3 | [dd']3 [cc']3 | [Aa]3 [dd']3 | [Gg]6) | [DGB] z [DGB] [DGB] z (D | B2 A G2 D | %6
 B2 G D2) (D | cBA BAG | F2 G A2) (D | D^CD E^DE | FEF G2) (G | ^GFG AGA | ^A^GA B2) (B/B/ | %13
 ^GFE ^DED | ^C^DC B,2 B,) | (^CB,C ^DCD | =F^DF G2 F) | (B2 A G2 D | BAG D3) | (cBA BAG | %20
 F2 G A2) (D | D^CD EDD | DBA G3) | (B2 A G2 D) | (B2 A G2 D) | (cBA BAG | F2 G A2) D | %27
 (B2 A G2 D) | (B2 A G2 D | cBA BAG | FGA !fermata![B,DG]3) |] %31
V:3
[K:C]!p! ([G,,G,]3 | [D,D]3 [C,C]3 | [A,,A,]3 [D,D]3 | [G,,G,]) z [D,G,B,] [D,G,B,] z [D,G,B,] | %4
 [D,G,B,] z [D,G,B,] [D,G,B,] z [D,G,B,] | [D,G,B,] z [D,G,B,] [D,G,B,] z [D,G,B,] | %6
 [D,G,B,] z [D,G,B,] [D,G,B,] z [D,G,B,] | [^F,A,C] z [F,A,C] [D,G,B,] z [D,G,B,] | %8
 [A,CD] z [A,CD] [A,CD] z [D,G,B,] | [D,G,B,] z [D,G,B,] [^F,A,C] z [F,A,C] | %10
 [A,CD] z [A,CD] [G,B,D] z [G,B,D] | [B,DE] z [B,DE] [A,CE] z [A,CE] | %12
 [C^D^F] z [CDF] [B,DF] z [B,DF] | [E,^G,B,] z [E,G,B,] [^F,A,B,] z [F,A,B,] | %14
 [^D,^F,A,] z [D,F,A,] [B,,E,^G,] z [B,,E,G,] | [^D,^F,A,] z [D,F,A,] [F,A,B,] z [F,A,B,] | %16
 [F,^G,B,] z [F,G,B,] [=G,B,D] z [G,B,D] | [G,B,D] z [G,B,D] [G,B,D] z [G,B,D] | %18
 [G,B,D] z [G,B,D] [G,B,D] z [G,B,D] | [CE^F] z [CEF] [G,B,D] z [G,B,D] | %20
 [A,CD] z [A,CD] [A,CD] z [A,CD] | [D,G,B,] z [D,G,B,] [^F,A,C] z [F,A,C] | %22
 [^F,A,C] z [F,A,C] [G,B,D] z [G,B,D] | [D,G,B,] z [D,G,B,] [D,G,B,] z [D,G,B,] | %24
 [D,G,B,] z [D,G,B,] [D,G,B,] z [D,G,B,] | [CD^F] z [CDF] [CDF] z [CDF] | %26
 [A,CD] z [A,CD] [A,CD] z [D,A,C] | [D,G,B,] z [D,G,B,] [D,G,B,] z [D,G,B,] | %28
 [D,G,B,] z [D,G,B,] [D,G,B,] z [D,G,B,] | [CD^F] z [CDF] [CDF] z [CDF] | %30
 [A,CD] z [A,CD]"^September 27th 1998" !fermata![G,,G,]3 |] %31

